Obsidian/status/16s/banshee-panel.svg

<svg height="16" width="16" xmlns="http://www.w3.org/2000/svg"><path d="m5.9914.0005c-.2536.0081-.4946.1129-.6739.2929l-2.9915 3c-.9789.9425.4702 2.3958 1.41 1.4141l1.2913-1.2949.0078 6.9394c-.0069.049-.0102.098-.0097.148 0 .015.0095.028.0097.043v.006c.0027.124.0285.247.0759.361.2255 2.236 2.127 4.09 4.402 4.09 2.418 0 4.487-2.075 4.487-4.5s-2.069-4.5-4.487-4.5c-.943 0-1.767.408-2.486.947l-.007-5.9465c0-.5647-.4659-1.0176-1.0287-1z" fill="#d3dae3"/></svg>

<svg xmlns="http://www.w3.org/2000/svg" width="16" height="16" version="1">
 <defs>
  <style id="current-color-scheme" type="text/css">
   .ColorScheme-Text { color:#d3dae3; } .ColorScheme-Highlight { color:#5294e2; }
  </style>
 </defs>
 <path style="fill:currentColor" class="ColorScheme-Text" d="M 5.9914,5e-4 C 5.7378,0.0086 5.4968,0.1134 5.3175,0.2934 L 2.326,3.2934 C 1.3471,4.2359 2.7962,5.6892 3.736,4.7075 L 5.0273,3.4126 5.0351,10.352 C 5.0282,10.401 5.0249,10.45 5.0254,10.5 5.0254,10.515 5.0349,10.528 5.0351,10.543 V 10.549 C 5.0378,10.673 5.0636,10.796 5.111,10.91 5.3365,13.146 7.238,15 9.513,15 11.931,15 14,12.925 14,10.5 14,8.075 11.931,6 9.513,6 8.57,6 7.746,6.408 7.027,6.947 L 7.02,1.0005 C 7.02,0.4358 6.5541,-0.0171 5.9913,5e-4 Z"/>
</svg>
